X:1
T:Plumptre
%%score { ( 1 2 ) | ( 3 4 ) }
L:1/8
Q:1/4=184
M:4/2
K:Bb
V:1 treble 
V:2 treble 
V:3 bass 
V:4 bass 
V:1
"^Presto" F4 | G4 B4 B4 A4 | B12 B4 | c4 c4 B4 G4 | F12 F4 | G4 G4 B4 B4 | c4 c4 d4 d4 | %7
 c4 B4 B4 A4 | B12 | B8 B8 |] %10
V:2
 D4 | E4 F4 E4 E4 | D12 D4 | F4 C4 D4 C4 | A,12 C4 | E4 E4 F4 D4 | F4 G4 ^F4 =F4 | F4 F4 E4 C4 | %8
 D12 | E8 D8 |] %10
V:3
 B,4 | B,4 B,4 G,4 F,4 | B,12 B,4 | A,4 F,4 F,4 =E,4 | F,12 A,4 | B,4 B,4 B,4 B,4 | %6
 A,4 G,4 A,4 B,4 | A,4 B,4 G,4 F,4 | F,12 | G,8 F,8 |] %10
V:4
 B,,4 | E,4 D,4 C,4 F,4 | B,,12 G,4 | F,4 A,,4 B,,4 _E,4 | F,12 F,4 | E,4 E,4 D,4 G,4 | %6
 F,4 E,4 D,4 B,,4 | F,4 D,4 E,4 F,4 | B,,12 | E,8 B,,8 |] %10

